X:25
T:Trip to Cullenstown
T:Raheen reel # 2
R:reel
C:Pip Murphy
D:i.Paul Smyth and Michael Conney - Up  and Away ii. Kevin Burke - Up Close
S:Clare FM
Z:psc -  http://www.cranfordpub.com
L:1/8
Q:333
M:C|
K:G
A|Bdde dBGA|~B3 G AGEG|Bdde dBGA|BAGB A2 GA|
BA (3(Bcd) egdB|dedB AGEG|~B3 G AGEG|DGGA G3:|
|:A|BddB ceec|BddB ABGA|Bddg edef|gedB ABGA|
BA (3(Bcd) egdB|dedB AGEG|~B3 G AGEG|DGGA G3:|
